!! 00000] TT[00
!! NN
!!!OTL: Taigong Haozi
!!!ARE: Asia, Ostasien, China, Sichuan
!! Ethnic Group: Han
!! Haozi - Artikel, Essen 1991
!!!SCT: C0000
!!!YEM: Copyright 1995, estate of Helmut Schaffrath.
**kern
*ICvox
*Ivox
*M4/4
*k[f#c#g#d#]
*E:
{4b
4cc#
16.cc#
32b
8a#
8b
8f#}
=1
{4b
4cc#
16.cc#
32b
8a#
8b
8b}
=2
{4b
8b
8b
8.cc#
16b
8f#
8b}
=3
{4b
8b
8b
8.cc#
16b
8f#
8f#}
=4
{8f#
8b
4cc#
16.cc#
32b
8a#
8b
8b}
=5
{8f#
8b
4cc#
16.cc#
32b
8a#
8b
8b}
=6
{8f#
16.f#
32b
8a#
8f#
8f#
8a#
8b
8b}
=7
{8f#
8f#
8a#
8f#
8f#
8a#
8b
8b}
=8
{4cc#
8ee
8b
8.cc#
16b
8b
8b}
=9
{8ff#
8ee
8cc#
8ee
8.cc#
16b
8b
8b}
=10
{8b
8ee
8cc#
8b
16f#
16ee
24cc#
24ee
24cc#
8b
8b}
{8.ff#
16ee
8cc#
8ee
8.cc#
16b
8b
8b}
{8ee
8b
8cc#
8b
8b
8ee
8cc#
16b
16b}
{8cc#
8b
8f#
8b
4cc#
8b
8b}
{8ee
16b
16ee
8.cc#
16b
8b
8ee
8cc#
16b
16b}
{8ff#
8ee
8cc#
8ee
8.b
16ee
4cc#}
==
!!!AGN: Haozi fÅr TrÑger: Wechselgesang!
!! Die Phraseneinteilung wurde hier nach funktionalen Kriterien
!!    vorgenommen; jeweils: Frage - AUFTAKT= Antwort = VorsÑnger - Alle.
!!    Die Phrasen 1 bis 8 werden wiederholt.
!!    +++ Die Phrasenenden wurden so gekÅrzt, da· keine öberlappungen
!!    zwischen den beiden Gruppen entstehen, d.h. die beiden Gruppen teilen
!!    sich den jeweils letzten Wert im Takt. Dies ist aus analytischen ...
!!!ONB: ESAC (Essen Associative Code) Database: CHINAx
!!!AMT: simple quadruple
!!!AIN: vox
!!!EED: Helmut Schaffrath
!!!EEV: 1.0
*-
